X: 6383
T:Walsh's
S:Irish Traditional    Arranged by John Layton 14/2/01
R:Polka
O:Ireland
M:2/4
L:1/16
K:A
B2|A2c2 e2f2|e2c2 cecB|A2c2 e2f2|e4 e2a2|
A2c2 e2f2|e2c2 cecB|A2F2 F2E2|A4 A2::ce|f2e2 cecB|
A2F2 F2E2|A3B A2c2|e4 e2ce|f2e2 cecB|A2F2 F2E2|A3B A2E2|A4 A2:|
